!!!OTL: ES SOLL SICH JA KEINER
!!!ARE: Europa, Mitteleuropa, Deutschland, Hessen, Nassau; Oberhessen;
!!    Westerwald; Wetterau
!!!SCT: E0693A
!!!YEM: Copyright 1995, estate of Helmut Schaffrath.
**kern
*ICvox
*Ivox
*M3/4
*k[f#]
*G:
{4d
=1
4g
4g
4a
=2
4b
4b}
{8ee
8ee
=3
4dd
4dd
4cc
=4
4cc
4b}
{4d
=5
4g
4g
4a
=6
4b
4b}
{8ee
8ee
=7
4dd
4dd
4cc
=8
4cc
4b}
{4g
=9
8f#
8ee
4ee
4dd
=10
8dd
8cc
4cc}
{4b
=11
4a
4b
8cc
8ee
=12
4ee
4dd}
{4b
=13
8a
8dd
4dd
4cc
=14
2b}
==
!!!AGN: Liebes - Lied, Leid, Klage
!!!ONB: ESAC (Essen Associative Code) Database: ERK2
!!!AMT: simple triple
!!!AIN: vox
!!!EED: Helmut Schaffrath
!!!EEV: 1.0
*-
